rospo-icon-theme-classic-common/32x32/apps/aegisub.svg

<svg height="32" width="32" xmlns="http://www.w3.org/2000/svg"><path d="m8.3397706 3.4421288a3.2969171 3.4219078 2.5927977 0 0 -1.2775533 1.2934888l-5.6176193 10.0777524a3.2969171 3.4219078 2.5927977 0 0 -.00552 3.42199l5.585317 10.058796a3.2969171 3.4219078 2.5927977 0 0 2.8526665 1.705839l11.2027185-.01935a3.2969171 3.4219078 2.5927977 0 0 2.858206-1.715815l5.617473-10.078014a3.2969171 3.4219078 2.5927977 0 0  .0054-3.421989l-5.585196-10.0587935a3.2969171 3.4219078 2.5927977 0 0 -2.852936-1.7060243l-11.2025744.0196084a3.2969171 3.4219078 2.5927977 0 0 -1.580902.4224765z" opacity=".2"/><path d="m8.3397706 2.4421246a3.2969171 3.4219078 2.5927977 0 0 -1.2775533 1.2934888l-5.6176193 10.0777526a3.2969171 3.4219078 2.5927977 0 0 -.00552 3.42199l5.585317 10.058796a3.2969171 3.4219078 2.5927977 0 0 2.8526665 1.705839l11.2027185-.01935a3.2969171 3.4219078 2.5927977 0 0 2.858206-1.715815l5.617473-10.078014a3.2969171 3.4219078 2.5927977 0 0  .0054-3.421989l-5.585196-10.0587937a3.2969171 3.4219078 2.5927977 0 0 -2.852936-1.7060243l-11.2025744.0196084a3.2969171 3.4219078 2.5927977 0 0 -1.580902.4224765z" fill="#ff4141"/><path d="m8.8420332 2.2137129a3.2969171 3.4219078 2.5927977 0 0 -.5030235.2289782 3.2969171 3.4219078 2.5927977 0 0 -1.2771122 1.2933798l-5.6168671 10.0778151a3.2969171 3.4219078 2.5927977 0 0 -.00539 3.420795l5.584499 10.059774a3.2969171 3.4219078 2.5927977 0 0 2.852263 1.705541l11.2027166-.01943a3.2969171 3.4219078 2.5927977 0 0 2.257536-.933953z" opacity=".2"/><path d="m22.37376 2.2595086-14.4689953 25.7871054s-.092586.147089-.113281.179019a3.2969171 3.4219078 2.5927977 0 0 2.0849157.774363l11.2027166-.01943a3.2969171 3.4219078 2.5927977 0 0 2.859006-1.715254l5.616867-10.077818a3.2969171 3.4219078 2.5927977 0 0  .0054-3.422183l-5.584506-10.0597706a3.2969171 3.4219078 2.5927977 0 0 -1.602123-1.4460318z" opacity=".2"/><path d="m1.0371094 16a3.2969171 3.4219078 2.5927977 0 0  .4023437 1.234375l5.5839844 10.060547a3.2969171 3.4219078 2.5927977 0 0 2.8535156 1.705078l11.2031249-.019531a3.2969171 3.4219078 2.5927977 0 0 2.857422-1.714844l5.617188-10.078125a3.2969171 3.4219078 2.5927977 0 0  .40039-1.1875z" opacity=".2"/><path d="m15.5 10c-6.4687499 0-11.5 5.055555-11.5 6.618489 0 2.048177 5.0312501 6.381511 11.5 6.381511 6.46875 0 11.5-5.055556 11.5-6.381511 0-1.562934-5.03125-6.618489-11.5-6.618489z" opacity=".2"/><path d="m15.5 9c-6.4687499 0-11.5 5.055555-11.5 6.618489 0 2.048177 5.0312501 6.381511 11.5 6.381511 6.46875 0 11.5-5.055556 11.5-6.381511 0-1.562934-5.03125-6.618489-11.5-6.618489z" fill="#fff"/><circle cx="15.5" cy="15.5" fill="#1b87e6" r="5.5"/><circle cx="15.5" cy="15.5" fill="#3f3f3f" r="2.5"/><path d="m21.123047 2-11.2031251.0195312a3.2969171 3.4219078 2.5927977 0 0 -1.5800781.421875 3.2969171 3.4219078 2.5927977 0 0 -1.2773438 1.2949219l-5.6171875 10.0761719a3.2969171 3.4219078 2.5927977 0 0 -.40625 2.212891 3.2969171 3.4219078 2.5927977 0 1  .40625-1.212891l5.6171875-10.0761719a3.2969171 3.4219078 2.5927977 0 1 1.2773438-1.2949219 3.2969171 3.4219078 2.5927977 0 1 1.5800781-.421875l11.2031251-.0195312a3.2969171 3.4219078 2.5927977 0 1 2.853515 1.7050781l5.583985 10.0605469a3.2969171 3.4219078 2.5927977 0 1  .400391 1.208984 3.2969171 3.4219078 2.5927977 0 0 -.400391-2.208984l-5.583985-10.0605469a3.2969171 3.4219078 2.5927977 0 0 -2.853515-1.7050781z" fill="#fff" opacity=".2"/></svg>

<svg xmlns="http://www.w3.org/2000/svg" width="32" height="32" version="1">
 <path style="opacity:0.2" d="M 8.3397706,3.4421288 A 3.2969171,3.4219078 2.5927977 0 0 7.0622173,4.7356176 L 1.444598,14.81337 a 3.2969171,3.4219078 2.5927977 0 0 -0.00552,3.42199 l 5.585317,10.058796 a 3.2969171,3.4219078 2.5927977 0 0 2.8526665,1.705839 L 21.07978,29.980645 a 3.2969171,3.4219078 2.5927977 0 0 2.858206,-1.715815 l 5.617473,-10.078014 a 3.2969171,3.4219078 2.5927977 0 0 0.0054,-3.421989 L 23.975663,4.7060335 A 3.2969171,3.4219078 2.5927977 0 0 21.122727,3.0000092 L 9.9201526,3.0196176 a 3.2969171,3.4219078 2.5927977 0 0 -1.580902,0.4224765 z"/>
 <path style="fill:#ff4141" d="M 8.3397706,2.4421246 A 3.2969171,3.4219078 2.5927977 0 0 7.0622173,3.7356134 L 1.444598,13.813366 a 3.2969171,3.4219078 2.5927977 0 0 -0.00552,3.42199 L 7.024395,27.294152 a 3.2969171,3.4219078 2.5927977 0 0 2.8526665,1.705839 L 21.07978,28.980641 a 3.2969171,3.4219078 2.5927977 0 0 2.858206,-1.715815 l 5.617473,-10.078014 a 3.2969171,3.4219078 2.5927977 0 0 0.0054,-3.421989 L 23.975663,3.7060293 A 3.2969171,3.4219078 2.5927977 0 0 21.122727,2.000005 L 9.9201526,2.0196134 a 3.2969171,3.4219078 2.5927977 0 0 -1.580902,0.4224765 z"/>
 <path style="opacity:0.2" d="M 8.8420332,2.2137129 A 3.2969171,3.4219078 2.5927977 0 0 8.3390097,2.4426911 3.2969171,3.4219078 2.5927977 0 0 7.0618975,3.7360709 L 1.4450304,13.813886 a 3.2969171,3.4219078 2.5927977 0 0 -0.00539,3.420795 l 5.584499,10.059774 a 3.2969171,3.4219078 2.5927977 0 0 2.852263,1.705541 l 11.2027166,-0.01943 a 3.2969171,3.4219078 2.5927977 0 0 2.257536,-0.933953 L 8.8420332,2.2137129 Z"/>
 <path style="opacity:0.2" d="M 22.37376,2.2595086 7.9047647,28.046614 c 0,0 -0.092586,0.147089 -0.113281,0.179019 a 3.2969171,3.4219078 2.5927977 0 0 2.0849157,0.774363 l 11.2027166,-0.01943 a 3.2969171,3.4219078 2.5927977 0 0 2.859006,-1.715254 l 5.616867,-10.077818 a 3.2969171,3.4219078 2.5927977 0 0 0.0054,-3.422183 L 23.975883,3.7055404 A 3.2969171,3.4219078 2.5927977 0 0 22.37376,2.2595086 Z"/>
 <path style="opacity:0.2" d="m 1.0371094,16 a 3.2969171,3.4219078 2.5927977 0 0 0.4023437,1.234375 L 7.0234375,27.294922 A 3.2969171,3.4219078 2.5927977 0 0 9.8769531,29 L 21.080078,28.980469 A 3.2969171,3.4219078 2.5927977 0 0 23.9375,27.265625 L 29.554688,17.1875 A 3.2969171,3.4219078 2.5927977 0 0 29.955078,16 L 1.0371094,16 Z"/>
 <path style="opacity:0.2" d="M 15.5,10 C 9.0312501,10 4,15.055555 4,16.618489 4,18.666666 9.0312501,23 15.5,23 21.96875,23 27,17.944444 27,16.618489 27,15.055555 21.96875,10 15.5,10 Z"/>
 <path style="fill:#ffffff" d="M 15.5,9 C 9.0312501,9 4,14.055555 4,15.618489 4,17.666666 9.0312501,22 15.5,22 21.96875,22 27,16.944444 27,15.618489 27,14.055555 21.96875,9 15.5,9 Z"/>
 <circle style="fill:#1b87e6" cx="15.5" cy="15.5" r="5.5"/>
 <circle style="fill:#3f3f3f" cx="15.5" cy="15.5" r="2.5"/>
 <path style="fill:#ffffff;opacity:0.2" d="M 21.123047 2 L 9.9199219 2.0195312 A 3.2969171 3.4219078 2.5927977 0 0 8.3398438 2.4414062 A 3.2969171 3.4219078 2.5927977 0 0 7.0625 3.7363281 L 1.4453125 13.8125 A 3.2969171 3.4219078 2.5927977 0 0 1.0390625 16.025391 A 3.2969171 3.4219078 2.5927977 0 1 1.4453125 14.8125 L 7.0625 4.7363281 A 3.2969171 3.4219078 2.5927977 0 1 8.3398438 3.4414062 A 3.2969171 3.4219078 2.5927977 0 1 9.9199219 3.0195312 L 21.123047 3 A 3.2969171 3.4219078 2.5927977 0 1 23.976562 4.7050781 L 29.560547 14.765625 A 3.2969171 3.4219078 2.5927977 0 1 29.960938 15.974609 A 3.2969171 3.4219078 2.5927977 0 0 29.560547 13.765625 L 23.976562 3.7050781 A 3.2969171 3.4219078 2.5927977 0 0 21.123047 2 z"/>
</svg>
